packages/vue-dot/src/assets/images/maintenance.svg

<svg width="171" height="172" viewBox="0 0 171 172" fill="none" xmlns="http://www.w3.org/2000/svg">
<path fill-rule="evenodd" clip-rule="evenodd" d="M170.982 85.8835C170.306 109.049 149.053 124.867 131.194 139.626C115.528 152.572 97.6949 161.104 77.4799 163.153C54.4478 165.488 27.5888 168.547 11.6534 151.745C-4.14864 135.084 -0.913808 108.277 4.19314 85.8835C8.22105 68.2219 23.7365 57.7169 36.113 44.4945C49.2414 30.4686 58.5107 10.5949 77.4799 7.58701C98.2899 4.28728 118.27 15.3752 134.428 28.9052C152.41 43.9632 171.667 62.4317 170.982 85.8835Z" fill="#E7ECF5"/>
<circle cx="123.867" cy="127.708" r="17.8337" fill="white" stroke="#0C419A" stroke-width="2"/>
<circle cx="126.623" cy="126.249" r="15.0776" fill="white" stroke="#0C419A" stroke-width="2"/>
<circle cx="126.948" cy="125.925" r="10.8623" fill="white" stroke="#0C419A" stroke-width="2"/>
<path d="M87.8759 67.7217C87.8759 48.5911 100.91 39.5316 112.357 37.2424C133.433 33.0271 166.485 50.0531 166.993 94.3101C167.408 130.581 151.238 170.784 115.437 170.833C82.688 170.878 74.4196 143.11 69.5559 136.625C67.9034 134.421 64.5439 127.87 60.8012 124.952C58.3242 123.02 52.695 123.055 48.3176 121.223C43.5228 119.215 36.3414 113.201 34.8613 107.28L29.6733 84.7448C32.0665 82.8133 33.5643 82.68 36.3204 82.9614C37.2932 85.5014 39.6926 93.1753 42.8054 103.551C46.5505 116.035 56.4238 115.386 65.1786 112.954C73.9333 110.523 75.8787 99.4981 74.906 93.4995C74.1278 88.7006 69.1776 78.3139 66.7998 73.7203C68.8237 71.4195 70.2588 70.912 73.1226 70.8021C74.3115 73.234 77.3379 79.4595 79.9319 84.9069C83.1743 91.7161 83.6607 97.7147 83.1743 101.768C82.688 105.821 78.797 114.089 76.8515 115.386C74.4196 117.17 74.9232 119.12 74.7439 122.196C74.3856 128.339 83.6161 163.542 115.437 163.375C150.207 163.193 161.133 115.818 160.832 94.3102C160.244 52.3242 129.866 39.188 114.302 43.2411C105.83 45.4474 94.562 50.2204 94.0367 67.7217C93.5829 82.8378 106.942 99.697 115.275 109.243C116.695 110.87 117.969 112.284 119.004 113.441C118.355 115.873 116.248 117.494 114.302 118.304C112.922 116.863 111.568 115.417 110.249 113.962C97.4668 99.8723 87.8759 85.0625 87.8759 67.7217Z" fill="#0C419A"/>
<path d="M42.8054 103.551C46.5505 116.035 56.4238 115.386 65.1785 112.954C73.9333 110.523 75.8787 99.4981 74.906 93.4995C74.1278 88.7006 69.1776 78.3139 66.7998 73.7203C68.8237 71.4195 70.2588 70.912 73.1226 70.8021C74.3115 73.234 77.3379 79.4595 79.9319 84.9069C83.1743 91.7161 83.6607 97.7147 83.1743 101.768C82.688 105.821 78.797 114.089 76.8515 115.386C74.4196 117.17 74.9232 119.12 74.7439 122.196C74.3856 128.339 83.6161 163.542 115.437 163.375C150.207 163.193 161.133 115.818 160.832 94.3102C160.244 52.3242 129.866 39.188 114.302 43.2411C105.83 45.4474 94.562 50.2204 94.0367 67.7217C93.5829 82.8378 106.942 99.697 115.275 109.243M42.8054 103.551C39.6926 93.1753 37.2932 85.5014 36.3204 82.9614M42.8054 103.551L36.3204 82.9614M36.3204 82.9614C33.5643 82.68 32.0665 82.8133 29.6733 84.7448L34.8613 107.28C36.3414 113.201 43.5228 119.215 48.3176 121.223C52.695 123.055 58.3242 123.02 60.8012 124.952C64.5439 127.87 67.9034 134.421 69.5559 136.625C74.4196 143.11 82.688 170.878 115.437 170.833C151.238 170.784 167.408 130.581 166.993 94.3101C166.485 50.0531 133.433 33.0271 112.357 37.2424C100.91 39.5316 87.8759 48.5911 87.8759 67.7217C87.8759 85.0625 97.4668 99.8723 110.249 113.962M110.249 113.962C111.568 115.417 112.922 116.863 114.302 118.304C116.248 117.494 118.355 115.873 119.004 113.441C117.969 112.284 116.695 110.87 115.275 109.243M110.249 113.962C112.33 112.485 113.448 111.506 115.275 109.243" stroke="#0C419A" stroke-width="2"/>
<path d="M34.4423 82.535L34.537 82.8903C33.0725 82.9143 31.9834 83.2022 30.8081 83.9315C26.1065 64.4796 15.8927 25.894 28.3762 12.5998C32.9157 8.06034 38.5901 6.49314 40.8598 6.27698L41.6704 9.84371C39.3466 10.222 33.6939 12.1134 29.6732 16.6529C19.7089 27.2602 30.7747 68.7754 34.4423 82.535Z" fill="white" stroke="#0C419A" stroke-width="2"/>
<path d="M37.9416 18.274C55.9374 29.2984 66.7998 60.4263 71.3392 70.9623C70.0872 71.182 69.1004 71.6533 67.9965 72.5857C61.6118 56.049 48.804 28.5652 37.9416 21.8408C29.2518 16.4612 21.8913 18.5983 18.0004 20.7059C17.9454 19.013 17.6454 18.2708 16.7034 17.3012C23.3505 14.8694 30.8082 13.5725 37.9416 18.274Z" fill="white" stroke="#0C419A" stroke-width="2"/>
<path d="M46.8584 10.0063C44.389 10.0063 42.1568 11.3033 41.0219 8.38503C40.3734 6.60163 41.1841 4.98039 42.4811 4.49402C43.7781 4.00765 44.9129 3.84552 45.3993 3.35915L45.3997 3.35876C45.7893 2.96912 47.1833 1.57513 49.1281 1.25108C51.3727 0.877093 53.6676 1.73793 54.6404 4.1698C55.6131 6.60166 54.499 9.13476 51.8843 10.0063C50.4251 10.4926 48.1554 10.0063 46.8584 10.0063Z" fill="#0C419A" stroke="#0C419A" stroke-width="2"/>
<ellipse cx="52.5099" cy="5.34591" rx="1.12297" ry="2.2824" transform="rotate(-12.7301 52.5099 5.34591)" fill="white" stroke="white" stroke-width="2"/>
<path d="M10.7046 17.3014C13.174 17.3014 16.4379 15.3559 17.676 18.7605C18.3245 20.5439 17.7922 22.4523 16.4952 22.9387C15.1982 23.425 14.0634 23.5872 13.577 24.0735L13.5766 24.0739C13.187 24.4636 11.793 25.8575 9.84813 26.1816C7.60355 26.5556 5.18465 25.7407 4.33589 23.2629C3.57112 21.0302 4.08177 18.8856 6.16511 17.7877C7.94847 16.8479 8.92122 17.3014 10.7046 17.3014Z" fill="#0C419A" stroke="#0C419A" stroke-width="2"/>
<ellipse cx="6.46681" cy="22.5313" rx="1.12297" ry="2.2824" transform="rotate(157.552 6.46681 22.5313)" fill="white" stroke="white" stroke-width="2"/>
</svg>

<svg xmlns="http://www.w3.org/2000/svg" width="171" height="172" fill="none" viewBox="0 0 171 172"><path fill="#e7ecf5" fill-rule="evenodd" d="M170.98 85.88c-.67 23.17-21.93 38.99-39.79 53.75-15.66 12.94-33.5 21.47-53.71 23.52-23.03 2.34-49.9 5.4-65.83-11.4C-4.15 135.07-.9 108.28 4.2 85.88 8.22 68.22 23.74 57.72 36.11 44.5c13.13-14.02 22.4-33.9 41.37-36.9 20.81-3.3 40.79 7.79 56.95 21.32 17.98 15.05 37.24 33.52 36.55 56.97Z" clip-rule="evenodd"/><circle cx="123.87" cy="127.71" r="17.83" fill="#fff" stroke="#0c419a" stroke-width="2"/><circle cx="126.62" cy="126.25" r="15.08" fill="#fff" stroke="#0c419a" stroke-width="2"/><circle cx="126.95" cy="125.92" r="10.86" fill="#fff" stroke="#0c419a" stroke-width="2"/><path fill="#0c419a" d="M87.88 67.72c0-19.13 13.03-28.19 24.48-30.48 21.07-4.21 54.13 12.81 54.63 57.07.42 36.27-15.75 76.47-51.55 76.52-32.75.05-41.02-27.72-45.88-34.2-1.66-2.2-5.02-8.76-8.76-11.68-2.48-1.93-8.1-1.9-12.48-3.73-4.8-2-11.98-8.02-13.46-13.94l-5.19-22.54c2.4-1.93 3.9-2.06 6.65-1.78.97 2.54 3.37 10.22 6.49 20.6 3.74 12.47 13.61 11.83 22.37 9.4 8.75-2.44 10.7-13.46 9.73-19.46-.78-4.8-5.73-15.19-8.11-19.78 2.02-2.3 3.46-2.8 6.32-2.92 1.2 2.43 4.22 8.66 6.81 14.1 3.24 6.82 3.73 12.81 3.24 16.87-.48 4.05-4.37 12.32-6.32 13.62-2.43 1.78-1.93 3.73-2.1 6.8-.36 6.15 8.87 41.35 40.69 41.19 34.77-.19 45.7-47.56 45.4-69.07-.6-41.99-30.97-55.12-46.54-51.07-8.47 2.2-19.74 6.98-20.26 24.48-.46 15.12 12.9 31.98 21.23 41.52 1.42 1.63 2.7 3.04 3.73 4.2-.64 2.43-2.75 4.05-4.7 4.86a217.2 217.2 0 0 1-4.05-4.34c-12.78-14.09-22.37-28.9-22.37-46.24Z"/><path stroke="#0c419a" stroke-width="2" d="M42.8 103.55c3.75 12.48 13.62 11.84 22.38 9.4 8.75-2.43 10.7-13.45 9.73-19.45-.78-4.8-5.73-15.19-8.11-19.78 2.02-2.3 3.46-2.8 6.32-2.92 1.2 2.43 4.22 8.66 6.81 14.1 3.24 6.82 3.73 12.81 3.24 16.87-.48 4.05-4.37 12.32-6.32 13.62-2.43 1.78-1.93 3.73-2.1 6.8-.36 6.15 8.87 41.35 40.69 41.19 34.77-.19 45.7-47.56 45.4-69.07-.6-41.99-30.97-55.12-46.54-51.07-8.47 2.2-19.74 6.98-20.26 24.48-.46 15.12 12.9 31.98 21.23 41.52m-72.46-5.69c-3.12-10.37-5.52-18.05-6.49-20.59m6.49 20.6-6.49-20.6m0 0c-2.76-.28-4.25-.15-6.65 1.78l5.2 22.54c1.47 5.92 8.65 11.94 13.45 13.94 4.38 1.84 10 1.8 12.48 3.73 3.74 2.92 7.1 9.47 8.76 11.67 4.86 6.49 13.13 34.26 45.88 34.21 35.8-.05 51.97-40.25 51.55-76.52-.5-44.26-33.56-61.28-54.63-57.07-11.45 2.3-24.48 11.35-24.48 30.48 0 17.34 9.59 32.15 22.37 46.24m0 0a217.2 217.2 0 0 0 4.05 4.34c1.95-.8 4.06-2.43 4.7-4.86-1.03-1.16-2.3-2.57-3.72-4.2m-5.03 4.72a21.32 21.32 0 0 0 5.03-4.72"/><path fill="#fff" stroke="#0c419a" stroke-width="2" d="m34.44 82.53.1.36a6.74 6.74 0 0 0-3.73 1.04C26.1 64.48 15.89 25.9 28.38 12.6c4.54-4.54 10.21-6.1 12.48-6.32l.81 3.56a22.53 22.53 0 0 0-12 6.81c-9.96 10.61 1.1 52.13 4.77 65.88Z"/><path fill="#fff" stroke="#0c419a" stroke-width="2" d="M37.94 18.27c18 11.03 28.86 42.16 33.4 52.7-1.25.21-2.24.68-3.34 1.62-6.39-16.54-19.2-44.02-30.06-50.75C29.25 16.46 21.9 18.6 18 20.71c-.05-1.7-.35-2.44-1.3-3.4 6.65-2.44 14.1-3.74 21.24.96Z"/><path fill="#0c419a" stroke="#0c419a" stroke-width="2" d="M46.86 10c-2.47 0-4.7 1.3-5.84-1.61-.65-1.79.16-3.41 1.46-3.9 1.3-.48 2.43-.64 2.92-1.13a7.2 7.2 0 0 1 3.73-2.1c2.24-.38 4.54.48 5.51 2.91a4.28 4.28 0 0 1-2.76 5.84c-1.45.48-3.72 0-5.02 0Z"/><ellipse cx="52.51" cy="5.35" fill="#fff" stroke="#fff" stroke-width="2" rx="1.12" ry="2.28" transform="rotate(-13 52.51 5.35)"/><path fill="#0c419a" stroke="#0c419a" stroke-width="2" d="M10.7 17.3c2.47 0 5.74-1.94 6.98 1.46.64 1.78.11 3.7-1.18 4.18-1.3.48-2.44.65-2.92 1.13a7.2 7.2 0 0 1-3.73 2.11c-2.25.38-4.67-.44-5.51-2.92-.77-2.23-.26-4.37 1.83-5.47 1.78-.94 2.75-.49 4.53-.49Z"/><ellipse cx="6.47" cy="22.53" fill="#fff" stroke="#fff" stroke-width="2" rx="1.12" ry="2.28" transform="rotate(158 6.47 22.53)"/></svg>
